X: 44
T:Ellis Knowles Hornpipe (no 4)
M:4/4
L:1/8
Q:200
C:Traditional
S:Ellis Knowles Manuscript 1847 - Radcliffe
K:A
d^d | ecea fcdB | ABce dcBA | FfEe DdCc | BGAF Ecd^d |!
ecea  fcdB | AGAc E2 CD | EecA dBGB | A2 a2 A2 :||!
GA | BEeE cEeE | BEeE cEeE | BEeE cEeE | BEeE Acde |!
fdbd ecac | dBgB cAaA | bBgB aceA | deGe A2 :||
A2 ||

